!!!COM: Beethoven, Ludwig van
!!!CDT: 1770///-1827///
!!!OTL: Piano Sonata no. 12 in A-flat major
!!!OTP: funeral march
!!!OPS: 26
!!!OMV: 1
!!!OMD: Andante
!!!ONB: con variazioni
**kern	**kern	**dynam
*staff2	*staff1	*staff1/2
*Ipiano	*Ipiano	*Ipiano
*>Theme	*>Theme	*>Theme
*clefF4	*clefG2	*clefG2
*k[b-e-a-d-]	*k[b-e-a-d-]	*k[b-e-a-d-]
*A-:	*A-:	*A-:
*M3/8	*M3/8	*M3/8
*MM72	*MM72	*MM72
8E-	8e-	p
=1	=1	=1
*^	*^	*
(8E-L	4.AA- 4.E-	(8e-L	4.c 4.e-	.
8A-)	.	8a-)	.	.
8A-J	.	8a-J	.	.
=2	=2	=2	=2	=2
(16A-LL	4.BB- 4.E-	(16a-LL	4.d- 4.e-	.
16G)	.	16g)	.	.
(16.G	.	(16.g	.	.
32FK	.	32fk	.	.
16.G	.	16.g	.	.
32E-JJk)	.	32e-JJk)	.	.
=3	=3	=3	=3	=3
4A-	8rBB	(4a-	8rc	.
.	(8CL	.	8e-L	<
8E-	8GGJ	8b-)	8B- 8e-J	.
*v	*v	*	*	*
=4	=4	=4	=4
8AA- 8E-L<	(16.dd-LL	8c 8e- 8a-L	sf >
.	32ccJk)	.	.
8EE-) 8E-J	8b-'J	8B- 8e- 8gJ	]
.	(8qcc	.	.
8r	(32b-LLL>)	8ryy	p
.	32an	.	.
.	32b-	.	.
.	32ccJJJ)	.	.
*	*v	*v	*
=5	=5	=5
(8FL	4a-X (4dd-	<
8f	.	.
8e-J	8a- 8cc	.
=6	=6	=6
8dnL	8a- 8b- 8ffL	.
8d-	8g 8b-	.
8cJ)	8a- 8ee-J)	.
=7	=7	=7
(8FL	8f (>8a-L	p
8G	8f- 8b- 8dd-	<
8A-J)	8e- 8a- 8ccJ	.
=8	=8	=8
*^	*^	*
4ryy	4E-	8f# 8anL	4e-	p
.	.	16g 16b-Jk)	.	.
.	.	16r	.	.
16.E-LL	8rGG	16.e-LL	8ryy	.
32E-'<JJk	.	32e-'JJk	.	.
=9	=9	=9	=9	=9
(16E-LL	4.AA- (4.E-	(16e-LL	4.c	.
16A-))	.	16a-X)	.	.
(16A-'	.	(16a-'	.	.
16A-'	.	16a-'	.	.
16A-'	.	16a-'	.	.
16A-'JJ)	.	16a-'JJ)	.	.
=10	=10	=10	=10	=10
(16A-LL	4.BB- 4.E-	(16a-LL	4.d- 4.e-	.
16G)	.	16g)	.	.
(16.G	.	(16.g	.	.
32Fk	.	32fk	.	.
16.G	.	16.g	.	.
32E-JJk)	.	32e-JJk)	.	.
=11	=11	=11	=11	=11
4A-	8rBB	(4a-	8rc	.
.	(8CL	.	8e-L	.
8E-	8GGJ	8b-)	8B- 8e-J	.
*v	*v	*	*	*
=12	=12	=12	=12
8AA- 8E-L<	(16.dd-LL	8c 8e- 8a-L	sf >
.	32ccJk)	.	.
8EE-) 8E-J	8b-'J	8B- 8e- 8gJ	]
.	(8qcc	.	.
8r	(32b-LLL>)	8ryy	p
.	32an	.	.
.	32b-	.	.
.	32ccJJJ)	.	.
*	*v	*v	*
=13	=13	=13
(8FL	4a-X (4dd-	<
8f	.	.
8e-J	8a- 8cc	.
=14	=14	=14
8dnL	8a- 8b- 8ffL	.
8d-	8g 8b-	.
8cJ)	8a- 8ee-J)	.
=15	=15	=15
.	(8qb-	.
8r	(32a-LLL)	p
.	32g	.
.	32a-	.
.	32b-JJJ)	.
(8E-L	(8e- 8a- 8ccL	.
8EE-J)	8d- 8g 8b-J	.
=16	=16	=16
8AA-`L	8c) 8a-	.
8AAA-`J	8r	.
[8fz	8r	.
=17	=17	=17
4f]	8an (8ccL<	.
.	8g 8b-	.
8e-	8a 8ccJ	.
=18	=18	=18
(16e-LL	8b- 8dd-L	.
16d-	.	.
16c	8dd- 8ffJ)	.
16B-JJ)	.	.
[8e-z	8r	.
=19	=19	=19
4e-]	8g (8b-L	.
.	8f 8a-X	.
8d-	8g 8b-J	.
=20	=20	=20
(16d-LL	8a- 8ccL	.
16c	.	.
16B-	8cc 8ee-J)	.
16A-JJ)	.	.
8r	[8e-^ [8ee-^	.
=21	=21	=21
*^	*	*
8cL	(4A-	8e-] (>8ee-L]	.
8BnJ	.	8dn 8ddn	<
8B- 8d-X	8G	8en 8eenJ	.
=22	=22	=22	=22
*	*	*^	*
8cL	8A-L	4ryy	8f 8ffL	.
8c	8En	.	8g 8ggJ)	.
8cJ	16FL	(16.aa-LL	8a-	.
.	16A-JJ)	.	.	.
.	.	32ffJJk)	.	.
*v	*v	*	*	*
=23	=23	=23	=23
*	*	*^	*
4BB- (4B-	(4ee-X	4g	8gL>	p
.	.	.	8b-J	.
*	*	*v	*v	*
8BBn 8Bn	8ddnt)	8f 8a-	.
=24	=24	=24	=24
8C 8cL	(4ee-	8e- 8gL	<
8AA- 8A-	.	8cc	.
8AAn 8AnJ)	16.ggLL	8f 8ccJ	sf
.	32ffJJk)	.	.
=25	=25	=25	=25
*	*	*^	*
4BB-X 4B-X	(4ee-	(4g	8gL>	p
.	.	.	8b-J	.
*	*	*v	*v	*
8BBB- 8BB-	8ddnt)	8f 8a-)	.
.	.	(16qccLL	.
.	.	16qddJJ)	.
=26	=26	=26	=26
*^	*	*	*
8E-L	(8EE-L	(8ee-'L	8e- 8gL	<
8E-	8FF	8ee-'	8dn 8a-	.
8E-J	8GGJ)	8ee-'J)	8d- 8b-J	.
=27	=27	=27	=27	=27
(16E-LL	4.AA- 4.E-	(16e-LL	4.c (4.e-	p
16A-)	.	16a-)	.	.
(16A-'	.	(16a-')	.	.
16A-'	.	16a-'	.	.
16A-'	.	16a-'	.	.
16A-'JJ)	.	16a-'JJ)	.	.
=28	=28	=28	=28	=28
(16A-LL	4.BB- 4.E-	(16a-LL	4.d- 4.e-	.
16G)	.	16g)	.	.
(16.G	.	(16.g	.	.
32Fk	.	32fk	.	.
16.G	.	16.g	.	.
32E-JJk)	.	32e-JJk)	.	.
=29	=29	=29	=29	=29
4A-	8rBB	(4a-	8rc	<
.	(8CL	.	8e-L	.
8E-	8GGJ	8b-)	8B- 8e-J	.
*v	*v	*	*	*
=30	=30	=30	=30
8AA- 8E-L<	(16.dd-LL	8c 8e- 8a-L	sf >
.	32ccJk)	.	.
8EE-) 8E-J	8b-'J	8B- 8e- 8gJ	]
.	(8qcc	.	.
8r	(32b-LLL>)	8ryy	p
.	32an	.	.
.	32b-	.	.
.	32ccJJJ)	.	.
*	*v	*v	*
=31	=31	=31
(8FFL	(4d- 4dd-	<
8F 8A-	.	.
8E- 8A-J	8c 8cc	.
=32	=32	=32
8Dn 8A-L	8f 8ffL	.
8D- 8G	8B- 8b-	.
8C 8A-J)	8e-) 8ee-J	.
=33	=33	=33
.	(8qb-	.
8r	(32a-XLLL)	p
.	32g	.
.	32a-	.
.	32b-JJJ)	.
(8E-L	(8e- 8a- 8ccL	.
8EE-J)	8d- 8g 8b-J	.
=34	=34	=34
8AA-`L	8c) 8a-	.
8AAA-`J	8r	.
=||	=||	=||
*>VarI	*>VarI	*>VarI
*k[b-e-a-d-]	*k[b-e-a-d-]	*k[b-e-a-d-]
*M3/8	*M3/8	*M3/8
*^	*	*
!	!	!LO:TX:i:a:t=Variation 1	!
[8E-	8rEE	8ryy	.
=35	=35	=35	=35
N(32E-LLL]	4.AAA- 4.EE- 4.AA-	4.ryy	p
32C	.	.	.
32E-	.	.	.
32A-JJJ	.	.	.
8c^L	.	.	.
8A-J	.	.	.
*v	*v	*	*
=36	=36	=36
4.BBB-\ 4.EE-\ 4.BB-\	32G<'>LLLN)	p
.	(>32d-	.
.	32e-	.
.	32gJJJ	.
.	8dd-^<L	.
.	8gJ	.
=37	=37	=37
4CC\ 4EE-\ 4C\	32a-'LLL)	.
.	(32E-<	.
.	32A-<	.
.	32c<JJJ)	.
.	8e-L	.
8GG\ 8E-\	8B- (>8e-J	.
=38	=38	=38
*	*^	*
8AA- 8E-L<	8A- 8e-L	16d-LL	sf
.	.	16cJJ	.
8EE- 8E-J	8G 8B- 8e-J	4ryy	.
.	(8qc)	.	.
8r	(32B-LLL)	.	.
.	32An	.	.
.	32B-	.	.
.	32cJJJ)	.	.
*	*v	*v	*
=39	=39	=39
8FF'L	(32d-'LLL	.
.	32d-	.
.	32f	.
.	32a-JJJ	.
8F (8A-	8dd-^<L	.
8E- 8A-J	16ccJk)	.
.	16r	.
=40	=40	=40
8Dn 8A-L	32r	.
.	(32fLLL	.
.	32a-	.
.	32b-JJJ	.
8D- 8G	8ffL	sf
8C 8A-J)	16ee-Jk)	.
.	16r	.
=41	=41	=41
*^	*	*
32r	(8FFL	4.ryy	<
(32D-LLL	.	.	.
32F	.	.	.
32A-JJJ	.	.	.
8F- 8B- 8d-L	8GG	.	.
8E- 8A- 8cJ	8AA-J	.	.
=42	=42	=42	=42
8F# 8AnL	4EE-) 4E-	4.ryy	.
16G 16B-Jk)	.	.	.
16rA	.	.	.
[8E-	8rGG	.	.
=43	=43	=43	=43
N(32E-LLL]	4.AAA- 4.EE- 4.AA-	4.ryy	p
32C	.	.	.
32E-	.	.	.
32A-JJJ	.	.	.
8c^L	.	.	.
8A-J	.	.	.
*v	*v	*	*
=44	=44	=44
4.BBB-\ 4.EE-\ 4.BB-\	32G<'>LLLN)	.
.	(32d-	.
.	32e-	.
.	32gJJJ	.
.	8dd-^<L	.
.	8gJ	.
=45	=45	=45
*^	*^	*
8ryy	8CC\ 8EE-\ 8C\	32a-'LLL)	4ryy	.
.	.	(<32E-<	.	.
.	.	32A-<	.	.
.	.	32c<JJJ)	.	.
16E-'LL	8r	16e-'>LL	.	<
16E-'	.	16e-'>	.	.
16E-'	8GG	16e-'	(8B-	.
16E-'JJ	.	16e-'JJ	.	.
*v	*v	*	*	*
=46	=46	=46	=46
8AA-z 8E-zL<	8A-z 8e-zL	16d-LL	.
.	.	16cJJ)	.
8EE- 8E-J	8G 8B- 8e-J	4ryy	.
.	(8qc	.	.
8r	(32B-LLL)	.	p
.	32An	.	.
.	32B-	.	.
.	32cJJJ)	.	.
*	*v	*v	*
=47	=47	=47
8FF'L	(32d-'LLL	.
.	32d-	.
.	32f	.
.	32a-JJJ	.
8F (8A-	8dd-^L	.
8E- 8A-J	16ccJk)	.
.	16r	.
=48	=48	=48
8Dn 8A-L	32r	.
.	(32ffLLL	.
.	32aa-	.
.	32bb-JJJ	.
8D- 8G	8fffL	sf
8C 8A-J)	16eee-Jk)	.
.	16r	.
=49	=49	=49
*	*^	*
4E-	32r	8ryy	.
.	(>32cLLL	.	.
.	[[>32e-	.	.
.	[>32a-JJJ	.	.
.	8.cc^zL	8e-]] 8a-L]	.
(8EE-	.	8d- 8gJ	.
.	16b-Jk	.	.
*	*v	*v	*
=50	=50	=50
8AA-`L)	8c 8a-)	.
8AAA-`J	8r	.
[8f	8r	.
=51	=51	=51
32fLLL]	8an (8ccL<	.
(32F	.	.
32An	.	.
32cJJJ)	.	.
(8.fzL	8g 8b-	.
.	8a 8ccJ	.
16e-Jk)	.	.
=52	=52	=52
(32e-LLL	8b- 8dd-L	.
32d-	.	.
32c	.	.
32B-JJJ	.	.
32AnLLL	8dd- 8ffJ)	.
32B-	.	.
32d-	.	.
32B-JJJ)	.	.
8BB-	16r	.
.	32b- (32dd-LLL	.
.	32a-X 32ccJJJ)	.
=53	=53	=53
32e-LLL	8g (8b-L<	.
(32E-	.	.
32G	.	.
32B-JJJ)	.	.
(8.e-zL	8f 8a-	.
.	8g 8b-J	.
16d-Jk)	.	.
=54	=54	=54
(32d-LLL	8a- 8ccL	.
32c	.	.
32B-	.	.
32A-XJJJ	.	.
32GLLL	8cc 8ee-J)	.
32A-	.	.
32c	.	.
32A-JJJ)	.	.
8AA-	16r	.
.	[16e-z [16ee-z	.
=55	=55	=55
8A- (8cL	32e-] 32ee-]	p
.	(32e-LLL	<
.	32ee-	.
.	32e-JJJ)	.
8A- 8Bn	32r	.
.	(32dnLLL	.
.	32ddn	.
.	32dJJJ)	.
8G 8B 8d-XJ	32r	.
.	(32enLLL	.
.	32een	.
.	32eJJJ)	.
=56	=56	=56
8A- 8cL	32r	.
.	(32fLLL<	.
.	32ff	.
.	32fJJJ)	.
8En 8c	32r	.
.	(32gLLL	.
.	32gg	.
.	32gJJJ)	.
8F 8cJ)	32r	.
.	(32a-LLL	.
.	32aa-	.
.	32a-JJJ)	.
=57	=57	=57
32r	4g 4b- 4ee-X	p
32BBB-'LLL	.	.
32EE-'	.	.
32GG'JJJ	.	.
32BB-'LLL	.	.
32E-'	.	.
32G'	.	.
32An'JJJ	.	.
8Bn'	8f 8a- 8ddn	sf
=58	=58	=58
32r	4e- 4g 4ee-	.
32CC'LLL	.	.
32EE-'	.	.
32GG'JJJ	.	.
32C'LLL	.	.
32E-'	.	.
32G'	.	.
32c'JJJ	.	.
8An	8f/ 8cc/ 8ff/	sf
=59	=59	=59
32r	4g/ 4b-/ 4ee-/	.
32BBB-'LLL	.	.
32EE-'	.	.
32GG'JJJ	.	.
32BB-'LLL	.	.
32E-'	.	.
32G'	.	.
32An'JJJ	.	.
(16B-XLL	8fT 8a- 8ddn	sf
16BB-JJ)	.	.
.	(16qccLL	.
.	16qdd-JJ)	.
=60	=60	=60
(16E-LL	32e-' 32g' 32ee-')	.
.	(32e-LLL	<
16EE-	32g	.
.	32ee-JJJ)	.
16FF	32r	.
.	(32dnLLL	.
16EE-	32a-	.
.	32ee-JJJ)	.
16GG	32r	.
.	(32d-LLL	.
16EE-JJ)	32b-	.
.	32ee-JJJ)	.
=61	=61	=61
*^	*	*
32c>LLL>	4.AAA- 4.EE- 4.AA-	4.ryy	p
(32C	.	.	.
32E-	.	.	.
32A-JJJ	.	.	.
8c^L	.	.	.
8A-J	.	.	.
*v	*v	*	*
=62	=62	=62
4.BBB-\ 4.EE-\ 4.BB-\)	32G<'>LLL	.
.	(32d-	.
.	32e-	.
.	32gJJJ	.
.	8dd-^<L	.
.	8gJ)	.
=63	=63	=63
*^	*^	*
8ryy	8CC\ 8EE-\ 8C\	32a-'>LLL	4ryy	.
.	.	(<32E-<	.	.
.	.	32A-<	.	.
.	.	32c<JJJ)	.	<
16E-'LL	8r	16e-'>LL	.	.
16E-'	.	16e-'>	.	.
16E-'	8GG	16e-'	(8B-	.
16E-'JJ	.	16e-'JJ	.	.
*v	*v	*	*	*
=64	=64	=64	=64
8AA-z 8E-L<z	8A-z 8e-zL	16d-LL	.
.	.	16cJJ)	.
8EE- 8E-J	8G 8B- 8e-J	4ryy	.
.	(8qc	.	.
8r	(32B-LLL)	.	.
.	32A-	.	.
.	32B-	.	.
.	32cJJJ)	.	.
*	*v	*v	*
=65	=65	=65
8FFL	32d-'LLL	.
.	(32d-	.
.	32f	.
.	32a-JJJ	.
8F (8A-	8dd-^<L	.
8E- 8A-J	16ccJk)	.
.	16r	.
=66	=66	=66
8Dn 8A-L	32r	.
.	32ffLLL	.
.	32aa-	.
.	32bb-JJJ	.
8D- 8G 8B-	8fffzL	.
8C 8A- 8cJ)	16eee-Jk	.
.	16r	.
=67	=67	=67
*	*^	*
4E-	32r	8ryy	.
.	(>32cLLL	.	.
.	[[32e-	.	.
.	[32a-JJJ	.	.
.	8.cczL	8e-]] 8a-]L	.
(8EE-	.	8d- 8gJ	.
.	16b-Jk)	.	.
*	*v	*v	*
=68	=68	=68
8AA-`L)	8c 8a-	.
8AAA-`J	8r	.
=||	=||	=||
*>VarTwo	*>VarTwo	*>VarTwo
*M3/8	*M3/8	*M3/8
16EE- 16E-LL	32r	.
.	32c 32e-LLL	p
16EE- 16E-JJ	32r	.
.	32c 32e-JJJ	.
=69	=69	=69
(16EE- 16E-LL>	32re	.
.	32c 32e-LLL	.
16AA-) 16A-	32r	.
.	32c 32e-	.
16AA-' 16A-'	32r	.
.	32c 32e-	.
16AA-' 16A-'	32r	.
.	32c 32e-	.
16AA-' 16A-'	32r	.
.	32c 32e-	.
16AA-' 16A-'JJ	32r	.
.	32c 32e-JJJ	.
=70	=70	=70
(16AA- 16A-LL	32re	.
.	32B- 32d- 32e-LLL	.
16GG) 16G	32r	.
.	32B- 32d- 32e-	.
16GG' 16G'	32r	.
.	32B- 32d- 32e-	.
16FF' 16F'	32r	.
.	32B- 32d- 32e-	.
16GG' 16G'	32r	.
.	32B- 32d- 32e-	.
16EE-' 16E-'JJ	32r	.
.	32B- 32d- 32e-JJJ	.
=71	=71	=71
16EE-' 16E-'LL	32re	.
.	32c 32e-LLL	.
16AA-' 16A-'	32r	.
.	32c 32e-	.
16EE-' 16E-'	32r	.
.	32c 32e- 32a-	.
16AA-' 16A-'	32r	.
.	32c 32e- 32a-	.
16EE-' 16E-'	32r	.
.	32d- 32e- 32g	.
16BB-' 16B-'JJ	32r	.
.	32d- 32e- 32gJJJ	.
=72	=72	=72
16EE-' 16E-'LL	32r	.
.	32e- 32a-LLL	.
16C' 16c'	32r	.
.	32e- 32a-	.
16EE-' 16E-'	32r	.
.	32e- 32g	.
16BB-' 16B-'JJ	32r	.
.	32e- 32g	.
(8qc	.	.
(32B-LLL)	32r	.
32An	32e- 32g- 32a-	.
32B-	32r	.
32cJJJ)	32e- 32g- 32a-JJJ	.
=73	=73	=73
16D-'LL	32r	.
.	32f 32a-LLL	.
16d-'	32r	.
.	32f 32a-	.
16F'	32r	.
.	32a- 32aa-	.
16d-'	32r	.
.	32a- 32aa-	.
16E-'	32r	.
.	32a- 32aa-	.
16c'JJ	32r	.
.	32a- 32aa-JJJ	.
=74	=74	=74
16Dn'LL	32r	.
.	32a- 32aa-LLL	.
16f'	32r	.
.	32a- 32aa-	.
16D-'	32r	.
.	32gn 32ggn	.
16B-'	32r	.
.	32g 32gg	.
16C'	32r	.
.	32a- 32aa-	.
16e-'JJ	32r	.
.	32a- 32aa-JJJ	.
=75	=75	=75
16FF'LL	32r	.
.	32dd- 32ddd-LLL	.
16A-'	32r	.
.	32f 32ff	.
16GG'	32r	.
.	32f- 32ff-	.
16d-'JJ	32r	.
.	32e- 32ee-	.
16AA-'LL	32r	.
.	32e- 32ee-	.
16c'JJ	32r	.
.	32e- 32ee-JJJ	.
=76	=76	=76
16EE-'LL	32r	.
.	32e- 32f# 32ee-LLL	.
16An'	32r	.
.	32e- 32f# 32ee-	.
16EE-'	32r	.
.	32e- 32g 32ee-	.
16B-'JJ	32r	.
.	32e- 32g 32ee-	.
16EE- 16E-LL	32r	.
.	32e- 32ee-	.
16EE- 16E-JJ	32r	.
.	32e- 32ee-JJJ	.
=77	=77	=77
16EE- (16E-LL	32r	.
.	32e- 32cc 32ee-LLL	.
16AA-X 16A-X)	32r	.
.	32e- 32cc 32ee-	.
16AA-' 16A-'	32r	.
.	32e- 32cc 32ee-	.
16AA-' 16A-'	32r	.
.	32e- 32cc 32ee-	.
16AA-' 16A-'	32r	.
.	32e- 32cc 32ee-	.
16AA-' 16A-'JJ	32r	.
.	32e- 32cc 32ee-JJJ	.
=78	=78	=78
16BB- (16A-LL	32r	.
.	32e- 32dd- 32ee-LLL	.
16BB- 16G)	32r	.
.	32e- 32dd- 32ee-	.
16BB-' 16G'	32r	.
.	32e- 32dd- 32ee-	.
16BB-' 16F'	32r	.
.	32e- 32dd- 32ee-	.
16BB-' 16G'	32r	.
.	32e- 32dd- 32ee-	.
16BB-' 16E-'JJ	32r	.
.	32e- 32g 32ee-JJJ	.
=79	=79	=79
16C' 16E-'LL	32r	.
.	32e- 32a- 32ee-LLL	.
16A-'	32r	.
.	32e- 32cc 32ee-	.
16C' 16E-'	32r	.
.	32e- 32a- 32ee-	.
16A-'	32r	.
.	32e- 32cc 32ee-	.
16GG' 16E-'	32r	.
.	32e- 32b- 32ee-	.
16B-'JJ	32r	.
.	32e- 32dd- 32ee-JJJ	.
=80	=80	=80
16AA-' 16E-'LL	32r	.
.	32e- 32a- 32cc 32ee-LLL<	.
16c'	32r	.
.	32e- 32a- 32cc 32ee-	.
16EE-' 16E-'	32r	.
.	32e- 32g 32b- 32ee-	.
16B-'JJ	32r	.
.	32e- 32g 32b- 32ee-	.
(8qc	.	.
(32B-LLL)	32r	.
32An	32e- 32g- 32a- 32ee-	.
32B-	32r	.
32cJJJ)	32e- 32g- 32a- 32ee-JJJ	.
=81	=81	=81
16D-'LL	32r	.
.	32f 32a- 32ffLLL	.
16d-'	32r	.
.	32f 32a- 32ff	.
16F'	32r	.
.	32a- 32aa-	.
16d-'	32r	.
.	32a- 32aa-	.
16E-'	32r	.
.	32a- 32aa-	.
16c'JJ	32r	.
.	32a- 32aa-JJJ	.
=82	=82	=82
16Dn'LL	32r	.
.	32a- 32aa-LLL	.
16f'	32r	.
.	32a- 32aa-	.
16D-'	32r	.
.	32gn 32ggn	.
16B-'	32r	.
.	32g 32gg	.
16C'	32r	.
.	32a- 32aa-	.
16e-'JJ	32r	.
.	32a- 32aa-JJJ	.
=83	=83	=83
16E-'LL	32rg	.
.	32e- 32cc 32ee-LLL	.
16A-'	32rg	.
.	32e- 32cc 32ee-	.
16EE-'	32rg	.
.	32e- 32a- 32cc 32ee-	.
16c'JJ	32rg	.
.	32e- 32a- 32cc 32ee-	.
16EE-'LL<	32rg	.
.	32d- 32e- 32g	.
16B-'JJ	32rg	.
.	32d- 32e- 32gJJJ	.
=84	=84	=84
16AA-'LL	32rg	.
.	32c 32e- 32a-LLL	.
16A-'JJ	32rg	.
.	32c 32e- 32a-JJJ	.
8AAA-	8r	.
16AAn'LL	32rg	.
.	32f 32ffLLL	.
16c'JJ	32rg	.
.	32f 32ffJJJ	.
=85	=85	=85
16AAn'LL	32rg	.
.	32f 32ffLLL	.
16c'JJ	32rdd	.
.	32ff 32fff	.
16GG'LL	32rdd	.
.	32een 32eeen	.
16B-'JJ	32rdd	.
.	32ee 32eee	.
16AA'LL	32rdd	.
.	32ee- 32eee-	.
16c'JJ	32rdd	.
.	32ee- 32eee-JJJ	.
=86	=86	=86
16BB-'LL	32rb	.
.	32dd- 32ddd-LLL	.
16d-'JJ	32rb	.
.	32dd- 32ddd-	.
16D-'LL	32rb	.
.	32b- 32bb-	.
16f'JJ	32rb	.
.	32b- 32bb-	.
(16BBB- 16BB-LL	32rb	rfz
.	32f 32dd- 32ff	.
16AAA-X 16AA-XJJ	32rb	.
.	32f- 32dd- 32ff-JJJ	.
=87	=87	=87
16GGG) 16GGLL<	32rb	p
.	32e- 32dd- 32ee-LLL	.
16B-'JJ	32rb	.
.	32ee- 32eee-	.
16FF'LL	32rb	.
.	32ddn 32dddn	.
16A-'	32rb	.
.	32dd 32ddd	.
16GG'	32rb	.
.	32dd- 32ddd-	.
16B-'JJ	32rb	.
.	32dd- 32ddd-JJJ	.
=88	=88	=88
16AA-'LL	32rb	.
.	32cc 32cccLLL	.
16c'JJ	32rb	.
.	32cc 32ccc	.
16C'LL	32rb	.
.	32a- 32aa-	.
16e-'JJ	32rb	.
.	32a- 32aa-	<
16C'LL	32rb	.
.	32a- 32aa-	.
16E-'JJ	32rb	.
.	32a- 32aa-JJJ	.
=89	=89	=89
16C'LL<	32r	.
.	32a- 32aa-LLL	.
16E-'	32r	.
.	32a- 32aa-	.
16BBn'	32r	.
.	32a- 32aa-	.
16Dn'	32r	.
.	32a- 32aa-	.
16BB-'	32r	.
.	32g 32gg	.
16En'JJ	32r	.
.	32g 32ggJJJ	.
=90	=90	=90
16AA-'LL<	32rdd	.
.	32cc 32cccLLL	.
16F	32rdd	.
.	32cc 32ccc	.
16GG'	32rb	.
.	32b- 32cc 32een	.
16G'JJ	32rb	.
.	32b- 32cc 32ee	.
16FF'LL	32rb	.
.	32a- 32cc 32ff	.
(32A-L	32rb	.
32FJJJ)	32a- 32cc 32ffJJJ	.
=91	=91	=91
16BB-'LL<	32r	.
.	32g 32ggLLL	.
16E-X'	32r	.
.	32g 32gg	.
16BB-'	32r	.
.	32g 32gg	.
16E-'	32r	.
.	32g 32gg	.
16BBn'z	32r	.
.	32a- 32ff 32aa-	.
16Dn'JJ	32r	.
.	32a- 32ff 32aa-JJJ	.
=92	=92	=92
16C'LL	32rb	.
.	32g 32ff 32ggLLL	.
16E-'	32rb	.
.	32g 32ee- 32gg	.
16C'	32rb	.
.	32g 32ee- 32gg	.
16E-'JJ	32rb	.
.	32g 32ee- 32gg	.
(16AAnLL	32rb	rfz
.	32cc 32ee- 32ccc	.
32GL	32rb	.
32FJJJ)	32cc 32ee- 32cccJJJ	.
=93	=93	=93
16BB-'LL<	32r	.
.	32b- 32ee- 32gg 32bb-LLL	.
16E-'	32r	.
.	32b- 32ee- 32gg 32bb-	.
16BB-'	32r	.
.	32g 32b- 32ee-	.
16E-'JJ	32r	.
.	32g 32b- 32ee-	.
16BBB-'LL	32r	.
.	32a- 32b- 32ff	.
16Dn'JJ	32r	.
.	32a- 32b- 32ffJJJ	.
=94	=94	=94
16EE-'LL<	32r	.
.	32g 32b- 32ee-LLL<	.
16E-'	32r	.
.	32g 32b- 32ee-	.
16FF'	32r	.
.	32e- 32a- 32ddn	.
16E-'	32r	.
.	32e- 32a- 32dd	.
16GG'	32r	.
.	32e- 32b- 32dd-	.
16E-'JJ	32r	.
.	32e- 32b- 32dd-JJJ	.
=95	=95	=95
16AA- (16E-LL	32r	.
.	32e- 32a- 32ccLLL<	.
16AA- 16A-)	32r	.
.	32e- 32a- 32cc 32ee-	.
16AA-' 16A-'	32r	.
.	32e- 32a- 32cc 32ee-	.
16AA-' 16A-'	32r	.
.	32e- 32a- 32cc 32ee-	.
16AA-' 16A-'	32r	.
.	32e- 32a- 32cc 32ee-	.
16AA-' 16A-'JJ	32r	.
.	32e- 32a- 32cc 32ee-JJJ	.
=96	=96	=96
16AA- (16A-LL<	32r	.
.	32e- 32b- 32dd- 32ee-LLL<	.
16GG 16G)	32r	.
.	32e- 32b- 32dd- 32ee-	.
16GG' 16G'	32r	.
.	32e- 32b- 32dd- 32ee-	.
16FF' 16F'	32r	.
.	32e- 32b- 32dd- 32ee-	.
16GG' 16G'	32r	.
.	32e- 32b- 32dd- 32ee-	.
16EE-' 16E-'JJ	32r	.
.	32e- 32b- 32dd- 32ee-JJJ	.
=97	=97	=97
16EE-' 16E-'LL<	32r	.
.	32e- 32a- 32cc 32ee-LLL<	.
16AA-' 16A-'	32r	.
.	32e- 32cc 32ee-	.
16EE-' 16E-'	32r	.
.	32e- 32a- 32cc 32ee-	.
16AA-' 16A-'	32r	.
.	32e- 32a- 32cc 32ee-	.
16EE-' 16E-'	32r	.
.	32e- 32g 32dd- 32ee-	.
16BB-' 16B-'JJ	32r	.
.	32e- 32g 32dd- 32ee-JJJ	.
=98	=98	=98
16EE-' 16E-'LL<	32r	.
.	32e- 32a- 32ee-LLL<	.
16C' 16c'	32r	.
.	32e- 32a- 32ee-	.
16EE-' 16E-'	32r	.
.	32e- 32g 32ee-	.
16BB-' 16B-'JJ	32r	.
.	32e- 32g 32ee-	.
(8cq	.	.
(32B-LLL)	32r	.
32An	32e- 32g- 32a- 32ee-	.
32B-	32r	.
32cJJJ)	32e- 32g- 32a- 32ee-JJJ	.
=99	=99	=99
16D-'LL	32r	.
.	32f 32a- 32ffLLL	.
16d-'	32r	.
.	32f 32a- 32ff	.
16F'	32r	.
.	32a- 32aa-	.
16d-'	32r	.
.	32a- 32aa-	.
16E-'	32r	.
.	32a- 32aa-	.
16c'JJ	32r	.
.	32a- 32aa-JJJ	.
=100	=100	=100
16Dn'LL	32r	.
.	32a- 32aa-LLL	.
16f'	32r	.
.	32a- 32aa-	.
16D-'	32r	.
.	32g 32gg	.
16B-'	32r	.
.	32g 32gg	.
16C'	32r	.
.	32a- 32aa-	.
16e-'JJ	32r	.
.	32a- 32aa-JJJ	.
=101	=101	=101
16E-'LL	32r	.
.	32e- 32cc 32ee-LLL<	.
16A-'	32r	.
.	32e- 32cc 32ee-	.
16EE-'	32r	.
.	32e- 32a- 32cc 32ee-	.
16c'	32r	.
.	32e- 32a- 32cc 32ee-	.
16EE-'	32rg	.
.	32d- 32e- 32g	.
16B-'JJ	32rg	.
.	32d- 32e- 32gJJJ	.
=102	=102	=102
16AA-'LL	32rg	.
.	32c 32e- 32a-LLL	.
16A-'JJ	32rg	.
.	32c 32e- 32a-JJJ	.
8AAA-	8r	.
=||	=||	=||
*>VarThree	*>VarThree	*>VarThree
*k[b-e-a-d-g-c-f-]	*k[b-e-a-d-g-c-f-]	*k[b-e-a-d-g-c-f-]
*M3/8	*M3/8	*M3/8
*^	*	*
!	!	!LO:TX:i:a:t=Variation III	!
16E-LL	8r	8r	p
[16E-JJ	.	.	.
=103	=103	=103	=103
16E-LK]	8AA-` 8C-`L	4.ryy	.
8A-	.	.	.
.	8AA-` 8C-`	.	.
8A-	.	.	.
.	8AA-` 8C-`J	.	.
[16A-Jk	.	.	.
=104	=104	=104	=104
16A-LK]	8BB-` 8D-`L	4.ryy	.
8Gn	.	.	.
.	8BB-` 8D-`	.	.
8G	.	.	.
.	8BB-` 8D-`J	.	.
[16GJk	.	.	.
=105	=105	=105	=105
16GLK]	8C-` 8E-`L	4.ryy	.
8A-	.	.	.
.	8C-` 8E-`	.	.
8A-	.	.	.
.	8C-` 8E-`J	.	.
[16A-Jk	.	.	.
=106	=106	=106	=106
16A-LK]	8D- 8F-L	4.ryy	.
8B--	.	.	.
.	8D- 8F-	.	.
8B--	.	.	.
.	8D- 8F-J	.	.
N[16B--Jk	.	.	.
*v	*v	*	*
=107	=107	=107
8E- 8G-L	16B--<N]LK	.
.	8cn	<
8E- 8G- 8B--	.	.
.	8c	.
8E- 8G- 8B--J	.	.
.	[16cJk	.
=108	=108	=108
8F- 8A-L	16cLK]	.
.	8d-	.
8F- 8A-	.	.
.	8d-	.
8F- 8A-J	.	.
.	[16d-Jk	.
=109	=109	=109
(8Fnz 8c-XzL	16d-LK]	.
.	8dn	.
8F 8B-	.	.
.	8d	.
8F 8A-J)	.	.
.	(16dzJk	.
=110	=110	=110
*^	*	*
8A-L	4E-z	(8dnL)	>
8GnJ	.	8e-J)	]
8r	8r	16E- 16e-LL	p
.	.	[16E- [16e-JJ	.
*v	*v	*	*
=111	=111	=111
8AAA-`zL	16E-] 16e-]LK	.
.	8A- 8a-	.
8AA-` 8C-`	.	.
.	8A- 8a-	.
8AA-` 8C-`J	.	.
.	[16A- [16a-Jk	.
=112	=112	=112
8BBB-`zL	16A-] 16a-LK]	.
.	8Gn 8gn	.
8BB-` 8D-`	.	.
.	8G 8g	.
8BB-` 8D-`J	.	.
.	[16G 16gJk	.
=113	=113	=113
8CC-`zL	16G] 16g-LK	.
.	8A- 8a-	.
8C-` 8E-`	.	.
.	8A- 8a-	.
8C-` 8E-`J	.	.
.	[16A- [16a-Jk	.
=114	=114	=114
8DD-`zL	16A-] 16a-LK]	.
.	8B-- 8b--	.
8D-` 8F-`	.	.
.	8B-- 8b--	.
8D-` 8F-`J	.	.
.	[16B-- [16b--Jk	.
=115	=115	=115
8EE-`zL	16B--] 16b--LK]	.
.	8cn 8ccn	<
8E-` 8G-` 8B--`	.	.
.	8c 8cc	.
8E-` 8G-` 8B--`J	.	.
.	[16c [16ccJk	.
=116	=116	=116
8FF-z`L	16c] 16ccLK]	.
.	8d- 8dd-	.
8F-` 8A-`	.	.
.	8d- 8dd-	.
8Fn` 8A-` 8c-`J	.	.
.	[16dn [16ddnJk	.
=117	=117	=117
8E-` 8A-` 8c-`	16d] 16ddLK]	.
.	8e- 8ee-	f
8EE-` 8AA-` 8C-` 8E-`L	.	.
.	8e- 8ee-	>
8EE-` 8GGn` 8BB-` 8E-`J	.	.
.	16e- 16ee-Jk	]
=118	=118	=118
8AA-' 8A-'L	8a-	p
8AAA-'J	8r	.
8r	[8b--/	.
=119	=119	=119
*	*^	*
8r	4.ee- [4.gg-	8b--L>]	.
*	*	*^	*
(8cnL	.	8a-	[4a-\	.
8A-J	.	8ccnJ	.	.
*	*	*v	*v	*
=120	=120	=120	=120
8d-L	8dd- 8gg-L]	4a-]	.
8D-J)	8ff-J	.	.
8r	8rff	[8f-z	.
=121	=121	=121	=121
8r	4.b-z [4.dd-z	8f-L>]	.
*	*	*^	*
(8GnL	.	8e-	[4e-\	.
8E-J	.	8gnJ	.	.
*	*	*v	*v	*
=122	=122	=122	=122
8A-L	(8a- 8dd-L]	4e-]	.
8AA-J)	8cc-J)	.	.
8r	16c-'' 16cc-''LL	8ryy	.
.	[16c-z [16cc-zJJ	.	.
*	*v	*v	*
=123	=123	=123
8DDn`L<	16c-] 16cc-LK]	.
.	8B- 8b-	.
8Dn` 8Fn`	.	.
.	16B- 16b-Jk	.
8D` 8B-`J	16a- 16aa-LL	.
.	[16a-z [16aa-zJJ	.
=124	=124	=124
8EE-`L<	16a-] 16aa-LK]	.
.	8g- 8gg-	.
8E-` 8B-`	.	.
.	16g- 16gg-Jk	.
8AA-` 8A-`J	16fn 16ffnLL	.
.	[16fz [16ffzJJ	.
=125	=125	=125
8BBB-`L	16f] 16ffLK<]	.
.	8e- 8ee-	.
8BB-` 8G-`J	.	.
.	16e- 16ee-Jk	.
8BBB-` 8BB-`	16dn 16ddnLL<	.
.	[16dz [16ddzJJ	.
=126	=126	=126
8CC-` 8C-`L	16dn] 16ddnLK]	.
.	8e- 8ee-	.
8C-` 8G-`J	.	.
.	16e- 16ee-Jk	.
8AAAn` 8AAn`	16fn 16ffnLL>	.
.	[16fz [16ffzJJ	.
=127	=127	=127
8BBB-` 8BB-`L	16f] 16ffLK]	.
.	8e- 8ee-	.
8BB-` 8E-` 8G-`J	.	.
.	16e- 16ee-Jk	.
8BBB- 8BB-	16dn 16ddnLL	.
.	[16dz [16ddzJJ	.
=128	=128	=128
(8EE- 8E-L	16d] 16ddLK]	.
.	8e- 8ee-	.
8DD-X 8D-X	.	.
.	8E- 8e-	.
8BBB-) 8BB-J	.	.
.	[16E- [16e-Jk	.
=129	=129	=129
8AAA-`zL	16E-] 16e-LK]	.
.	8A- 8a-	p
8AA-` 8C-`	.	.
.	8A- 8a-	.
8AA-` 8C-`J	.	.
.	[16A- [16a-Jk	.
=130	=130	=130
8BBB-`zL	16A-] 16a-LK]	.
.	8Gn 8gn	.
8BB-` 8D-`	.	.
.	8G 8g	.
8BB-` 8D-`J	.	.
.	[16G [16gJk	.
=131	=131	=131
8CC-`zL<	16G] 16gLK]	.
.	8A- 8a-	.
8C-` 8E-`	.	.
.	8A- 8a-	.
8C-` 8E-`J	.	.
.	[16A- [16a-Jk	.
=132	=132	=132
8DD-`zL<	16A-] 16a-LK]	.
.	8B-- 8b--	.
8D-` 8F-`	.	.
.	8B-- 8b--	.
8D-` 8F-`J	.	.
.	[16B-- [16b--Jk	.
=133	=133	=133
8EE-`zL	16B--] 16b--LK]	.
.	8cn 8ccn	.
8E-` 8G-` 8B--`	.	<
.	8c 8cc	.
8E-` 8G-` 8B--`J	.	.
.	[16c [16ccJk	.
=134	=134	=134
8FF-`zL	16c] 16ccLK]	.
.	8d- 8dd-	.
8F-` 8A-`	.	.
.	8d- 8dd-	.
8Fn` 8A-` 8c-X`J	.	.
.	[16dn [16ddnJk	.
=135	=135	=135
8E-` 8A-` 8c-`	16d] 16ddLK]	.
.	8e- 8ee-	f
8EE-` 8AA-` 8C-` 8E-`L	.	>
.	8e- 8ee-	.
8EE-` 8GGn` 8BB-` 8E-`J	.	.
.	16e- 16ee-Jk	]
=136	=136	=136
8AA-' 8A-'L	8a-	p
8AAA-'J	8r	.
=||	=||	=||
*>VarFour	*>VarFour	*>VarFour
*M3/8	*M3/8	*
*k[b-e-a-d-]	*k[b-e-a-d-]	*
8r	[8e-	pp
=137	=137	=137
8AA-' 8C'	(8e-L]	.
8r	8a-'J)	.
8A-' 8c'	[8aa-	.
=138	=138	=138
8B-' 8d-'	(8aa-L]	.
8r	8gg'J)	.
8BB-' 8D-'	[8g	.
=139	=139	=139
8C'/ 8E-'/	(8gL]	.
8r	8a-'J)	.
*clefG2	*	*
8c' 8e-'	[8aa- [8ccc	.
=140	=140	=140
8dn' 8f'L	8aa-] (8cccL]	.
8e-' 8g'J	8gg' 8bb-'J)	.
*clefF4	*	*
8F' 8A-'	(8f [8dd-	.
=141	=141	=141
8G' 8B-'L	8f- 8dd-L]	.
8A-' 8c'J	8e-') 8cc'J	.
*clefG2	*	*
8dn' 8a-'	[8ffn [8fffn	< [
=142	=142	=142
8d-X' 8g' 8b-'L	8ff] (8fffL]	>
8c' 8a-' 8cc'J	8ee-' 8eee-'J)	]
*clefF4	*	*
(<8FF\	8A-< 8c- 8dn	<
=143	=143	=143
8GGL<	8F-< 8B- 8d-L	.
8AA-	8E-< 8A- 8cn	.
8DDnJ	[>8Fn< [>8A- [8c-J	.
=144	=144	=144
8EE-L<	8F<] 8A-] 8c-L]	.
8E-J)	8G 8B-J	.
8rGG	[8E-< [8e-	pp
=145	=145	=145
8AAA-\ 8AA-\	(8E-<] 8e-]L	.
8rEE	8A-< 8a-J)	.
16A-' 16c'LL	[8a- [8aa-	.
16A-' 16c'JJ	.	.
=146	=146	=146
8B-' 8d-'	8a-] (8aa-L]	.
8r	8g' 8gg'J)	.
16BB-' 16D-'LL<	[8G [8g	.
16BB-' 16D-'JJ	.	.
=147	=147	=147
8C' 8E-'	(8G] 8gL]	.
8r	8A-) 8a-J	.
*clefG2	*	*
16c' 16e-'LL	[8aa- [8ccc	.
16c' 16e-'JJ	.	.
=148	=148	=148
16dn' 16f'LL	8aa-] (8cccL]	.
16d' 16f'JJ	.	.
8e-' 8g'	8gg' 8bb-'J)	.
*clefF4	*	*
16F' 16A-'LL	(8f [8dd-	.
16F' 16A-'JJ	.	.
=149	=149	=149
16G' 16B-'LL	8f- 8dd-L]	.
16G' 16B-'JJ	.	.
8A-' 8c'	8e-'>) 8cc'>J	.
*clefG2	*	*
16dn' 16a-'LL	[8ffn [8fffn	<
16d' 16a-'JJ	.	[
=150	=150	=150
16d-X' 16g' 16b-'LL	8ff] (8fffL]	>
16d-' 16g' 16b-'JJ	.	.
8c' 8a-' 8cc'	8ee-' 8eee-'J)	]
*clefF4	*	*
16F'LL	[8c-z' [>8dnz' [8a-z'	.
16F'JJ	.	.
=151	=151	=151
*	*^	*
8E-'	(4a-]	8c-] 8dL]	>
8r	.	8cn 8e-	.
16EE-'LL	8g	8B- 8d-J	]
16EE-'JJ	.	.	.
=152	=152	=152	=152
*^	*	*	*
4ryy	8AA-'L	8a-)	8A- 8c	.
.	8AAA-'J	8r	4ryy	.
8ryy	8BB- 8D-	[8g- [>8G-<	.	.
*v	*v	*	*	*
*	*v	*v	*
=153	=153	=153
8AAn'<\ 8C'<\	8G-<] (>8g-L]	.
8rGG	8F< 8fJ)	.
8An' 8f'	[8ee- [8eee-	.
=154	=154	=154
8B-' 8f'	8ee-] (8eee-L]	.
8r	8dd-y 8ddd-yJ)	.
8AA-'<\ 8C-'<\	[>8F-< [8f-	.
=155	=155	=155
8GG'<\ 8BB-'<\	(>8F-<] 8f-L]	.
8rGG	8E-< 8e-J)	.
8G' 8e-'	[8dd- [8ddd-	.
=156	=156	=156
*^	*	*
8A-' 8e-'	4ryy	8dd-] (8ddd-L]	.
8r	.	8cc 8cccJ)	.
8ryy	8AA-'	[8c 8C< 8F<	sf
=157	=157	=157	=157
*	*	*^	*
4Dn 4F	8GG'L>	4ryy	(8cL]	.
.	8GGG'J	.	8BnJ)	.
8ryy	8C'\	[8en 8g (8b-X	[8d-	.
*v	*v	*	*	*
=158	=158	=158	=158
8F'L<	(8e] 8gL)	8d-L]	.
8FF'J	8f 8anJ)	8cJ	.
8An'	[8ff	8f 8cc	.
=159	=159	=159	=159
*^	*	*	*
4ryy	8B-'L	(8ffL]	4g 4b-	.
.	8BB-'J	8ee-J)	.	.
8ryy	8BBn	8ryy	[8dn [>8F< [>8A-X<	sf
=160	=160	=160	=160	=160
8ryy	8C'L	4ryy	(>8d 8F<] 8A-<L]	.
8ryy	8CC'<J	.	8e- 8E-< 8G<J)	.
8An'	8ryy	[8ff	8f 8cc	sf
*v	*v	*	*	*
=161	=161	=161	=161
8B-'L	(8ffL]	4g 4b-	.
8BB-'J	8ee-J)	.	.
8BBB-'<\	8F< 8A-X< 8dn	8ryy	sf
*	*v	*v	*
=162	=162	=162
*^	*	*
8ryy	16EE-'LL	8e- 8E-< 8G<L	.
.	(32D-L	.	>
.	32CJJJ	.	.
8ryy	32BB-LLL	8e- 8F< 8A-<	.
.	32AA-	.	.
.	32GG	.	.
.	32FFJJJ	.	.
8ryy	32EE-LLL<	[8e- 8G< 8B-<J	.
.	32DD-	.	.
.	32CC	.	.
.	32BBB-JJJ)	.	.
=163	=163	=163	=163
8A-\ 8c\	8AAA-'	(8e-L]	pp
8r	4ryy	8a-J)	.
16A-' 16c'LL	.	[8a- [8aa-	.
16A-' 16c'JJ	.	.	.
*v	*v	*	*
=164	=164	=164
8B-' 8d-'	8a-] (8aa-L]	.
8r	8g 8ggJ)	.
16BB-' 16D-'LL<	[8G [8g	.
16BB-' 16D-'JJ	.	.
=165	=165	=165
8C' 8E-'	(8G] 8gL]	.
8r	8A-) 8a-J	.
*clefG2	*	*
16c' 16e-'LL	[8aa- [8ccc	.
16c' 16e-'JJ	.	.
=166	=166	=166
16dn' 16f'LL	(8aa-] 8cccL]	.
16d' 16f'JJ	.	.
8e-' 8g'	8gg 8bb-J)	.
*clefF4	*	*
16F' 16A-'LL	(8f [8dd-	.
16F' 16A-'JJ	.	.
=167	=167	=167
16G' 16B-'LL	8f- 8dd-L]	.
16G' 16B-'JJ	.	.
8A-' 8c'	8e-) 8ccJ	.
*clefG2	*	*
*	*8va	*
16dn' 16a-'LL	[8ffn [8fffn	<
16d' 16a-'JJ	.	.
=168	=168	=168
16d-' 16g' 16b-'LL	8ff] (8fffL]	>
16d-' 16g' 16b-'JJ	.	.
8c' 8a-' 8cc'	8ee- 8eee-J)	]
*	*X8va	*
*clefF4	*	*
*	*^	*
16F'LL	[8a-z	[8c- [8dn	.
16F'JJ	.	.	>
=169	=169	=169	=169
8E-'	(4a-]	(8c-] 8dL]	.
8r	.	8cn 8e-	.
16EE-'LL	8g	8B- 8d-J	]
16EE-'JJ	.	.	.
=170	=170	=170	=170
8AA-'L	8a-)	8A- 8c)	.
8AAA-'J	8r	8r	.
*	*v	*v	*
=||	=||	=||
*>VarFive	*>VarFive	*>VarFive
!	!LO:TX:i:a:t=Variation V	!
*M3/8	*M3/8	*M3/8
!	!	!LO:TX:pos=a:i:t=dolce
8r	(>(<24cLL	p
.	24f	.
.	24e-JJ)	.
=171	=171	=171
(24AA-LL	24cLL	.
24E-	24f	.
24A-JJ	24e-JJ	.
*Xtuplet	*Xtuplet	*
24AA-LL	24cLL	.
24E-	24b-	.
24A-JJ	24a-JJ	.
24AA-LL	24cLL	.
24E-	24b-	.
24A-JJ)	24a-JJ)	.
=172	=172	=172
(24BB-LL	(>24d-yLL	.
24E-	24a-	.
24B-JJ	24gJJ	.
24BB-LL	24d-LL	.
24E-	24g	.
24B-JJ	24fJJ	.
24BB-LL	24d-LL	.
24E-	24g	.
24B-JJ)	24e-JJ)	.
=173	=173	=173
24CLL	(>24e-LL	.
24E-	24b-	.
24cJJ	24a-JJ	.
24CLL	24e-LL	.
24E-	24b-	.
24cJJ	24a-JJ	.
24GGLL	24e-LL	.
24E-	24cc	.
24GJJ	24b-JJ)	.
=174	=174	=174
24AA-LL	(24e-LL<	.
24E-	24b- 24dd-y	.
24A-JJ	24a- 24ccJJ	.
24EE-LL<	24e-LL<	.
24E-	24a- 24cc	.
24E-JJ	24g 24b-JJ)	.
.	(8qcc	.
24GG-LL	()32b-LLL	.
.	32an	.
24E-	.	.
.	32b-	.
24G-JJ	.	.
.	32ccJJJ)	.
=175	=175	=175
24FFLL	(24a-XLL	.
24F	24ee-	.
24A-JJ	24dd-yJJ	.
(24FLL	24a-LL	.
24A-	24ee-	.
24d-JJ	24dd-JJ	.
24E-LL	24a-LL	.
24A-	24dd-	.
24cJJ	24ccJJ)	.
=176	=176	=176
24DnLL	(24a-LL	.
24F	24gg	.
24B-JJ	24ffJJ	.
24D-LL	24gLL<	.
24E-	24cc	.
24B-JJ	24b-JJ	.
24CLL	24a-LL	.
24E-	24ff	.
24A-JJ)	24ee-JJ)	.
=177	=177	=177
24FFLL	(24a-LL	.
24F	24ee-	.
24A-JJ	24ddnJJ	.
24GGLL	24f-LL	.
24G	24cc 24ee-	.
24B-JJ	24b- 24dd-JJ	.
24AA-LL	24e-LL<	.
24A-	24b- 24dd-	.
24cJJ	24a- 24ccJJ)	.
=178	=178	=178
(24EE-LL<	(8f# 8anL	p
24E-	.	.
24E-JJ	.	.
24E-LL	8g) 8b-J	.
24F	.	.
24E-JJ	.	.
24D-LL<	(32e-LLL	.
.	32ee-)	.
24C	.	.
.	(32e-	.
24BB-JJ)	.	.
.	32ee-JJJ)	.
=179	=179	=179
*	*^	*
!	!LO:TX:i:t=(cantando il tema)	!	!
(32AA-LLL	(32e-LLL	8e-L	.
32E-	32ee-	.	.
32A-	32ff	.	.
32E-JJJ	32ee-JJJ	.	.
32CLLL	32a-XLLL	8a-X	.
32E-	32ee-	.	.
32A-	32ff	.	.
32E-JJJ	32ee-JJJ	.	.
32CLLL	32a-LLL	8a-J	.
32E-	32ee-	.	.
32A-	32ff	.	.
32E-JJJ)	32ee-JJJ)	.	.
=180	=180	=180	=180
(32BB-LLL	(32ffLLL	(16a-LL	.
32E-	32ee-	.	.
32G	32ff	16g)	.
32E-JJJ	32ee-JJJ	.	.
32D-LLL	32ffLLL	(16g	.
32E-	32ee-	.	.
32B-	32ff	16f	.
32E-JJJ	32ee-JJJ	.	.
32D-LLL	32ffLLL	16g	.
32E-	32ee-	.	.
32B-	32ff	16e-JJ)	.
32E-JJJ)	32ee-JJJ)	.	.
=181	=181	=181	=181
32CLLL	(32a-LLL	8a-L	.
32E-	32ee-	.	.
32A-	32ff	.	.
32E-JJJ	32ee-JJJ	.	.
32CLLL	32a-LLL	(8a-	.
32E-	32ee-	.	.
32A-	32ff	.	.
32E-JJJ	32ee-JJJ	.	.
32GGLLL	32b-LLL	8b-J)	.
32E-	32ee-	.	.
32G	32ff	.	.
32E-JJJ	32ee-JJJ)	.	.
=182	=182	=182	=182
32AA-LLL	(32ccLLL	(8a-L	.
32E-	32ee-	.	.
32A-	32ff	.	.
32E-JJJ	32ee-JJJ	.	.
32EE-LLL<	32b-LLL	8gJ)	.
32E-	32ee-	.	.
32G	32ff	.	.
32E-JJJ	32ee-JJJ)	.	.
.	(8qcc	.	.
32GG-LLL	()32b-LLL>	8ryy	.
32E-	32an	.	.
32G-	32b-	.	.
32E-JJJ	32ccJJJ)	.	.
=183	=183	=183	=183
32FFLLL	(32dd-yLLL	8dd-yL	<
32F	32aa-	.	.
32A-	32bb-	.	.
32d-JJJ	32aa-JJJ	.	.
(32FLLL	32dd-LLL	(8dd-	.
32A-	32aa-	.	.
32d-	32bb-	.	.
32A-JJJ	32aa-JJJ	.	.
32E-LLL	32ccLLL	8ccJ	.
32A-	32aa-	.	.
32c	32bb-	.	.
32A-JJJ)	32aa-JJJ	.	.
=184	=184	=184	=184
(32DnLLL	32ffLLL	8ffL	.
32F	32aa-	.	.
32B-	32bb-	.	.
32FJJJ	32aa-JJJ	.	.
32D-LLL	32b-LLL	8b-	.
32E-	32gg	.	.
32B-	32aa-	.	.
32E-JJJ	32ggJJJ	.	.
32CLLL	32ee-LLL	8ee-J)	.
32E-	32aa-	.	.
32A-	32bb-	.	.
32E-JJJ)	32aa-JJJ)	.	.
=185	=185	=185	=185
32EE-LLL<	32a-LLL	(8a-L	p
32C	32ee-	.	.
32E-	32ff	.	.
32A-JJJ	32ee-JJJ	.	.
32EE-LLL<	32ccLLL	8a-	.
32C	32ee-	.	.
32E-	32ff	.	.
32A-JJJ	32ee-JJJ	.	.
32EE-LLL<	32b-LLL	8gJ	.
32D-	32ee-	.	.
32E-	32ff	.	.
32GJJJ	32ee-JJJ	.	.
*	*v	*v	*
=186	=186	=186
32AA-LLL	8a-)	.
32C	.	.
32E-	.	.
32A-JJJ	.	.
8AA-	8r	.
8r	(32eenLLL	.
.	32ff)	.
.	(32ee	.
.	32ffJJJ)	.
=187	=187	=187
32AnLLL	16ffLK	.
32f	.	.
32c	8fff^	.
32fJJJ	.	.
32GLLL	.	.
32f	.	.
32B-	8eeen^	.
32fJJJ	.	.
32ALLL	.	.
32f	.	.
32c	[16eee-^Jk	.
32fJJJ	.	.
=188	=188	=188
32B-LLL	(32eee-LLL]	.
32f	32ddd-y	.
32d-	32ccc	.
32fJJJ	32bb-JJJ	.
8BB-	32aanLLL	.
.	32bb-	.
.	32gg-	.
.	32ffJJJ	.
8r	32ee-LLL	.
.	32dd-	.
.	32cc	.
.	32b-JJJ)	.
=189	=189	=189
32GLLL	16ee-'LK	.
32e-	.	.
32B-	8eee-^	.
32e-JJJ	.	.
32FLLL	.	.
32e-	.	.
32A-	8dddn^	.
32e-JJJ	.	.
32GLLL	.	.
32e-	.	.
32B-	[16ddd-^Jk	.
32e-JJJ	.	.
=190	=190	=190
32A-LLL	(32ddd-LLL]	.
32e-	32ccc	.
32c	32bb-	.
32e-JJJ	32aa-JJJ	.
8AA-	32ggnLLL	.
.	32aa-	.
.	32ddn	.
.	32ee-JJJ	.
8r	32bnLLL	.
.	32cc	.
.	32cc#	.
.	32ddJJJ)	<
=191	=191	=191
*	*^	*
(<16CLL	(8ee-L	32r	.
.	.	(>32e-LLL	.
16c	.	32a-	.
.	.	32e-JJJ)	.
16BBn	8ddn	32r	.
.	.	(>32fLLL	.
16Bn	.	32a-	.
.	.	32fJJJ)	.
16BB-	8eenJ	32r	.
.	.	(>32gLLL	.
16B-JJ)	.	32dd-	.
.	.	32gJJJ)	.
=192	=192	=192	=192
(<16AA-LL<	8ffL	32r	.
.	.	(>32a-/LLL<	.
16A-	.	32cc	.
.	.	32a-JJJ)	.
16GG	8gg	32r	.
.	.	(>32b-LLL	.
16G	.	32een	.
.	.	32b-JJJ)	.
16FF	8aa-J)	32r	.
.	.	(>32ccLLL	.
16FJJ)	.	32ff	.
.	.	32ccJJJ)	.
=193	=193	=193	=193
(<16BB-LL	4ee-X	(32gLLL	.
.	.	32f#	.
16B-	.	32g	.
.	.	32f#JJJ	.
16BB-	.	32gLLL	.
.	.	32b-	.
16B-	.	32a-	.
.	.	32gJJJ	.
16BBn	8ddn	32fnLLL	sf
.	.	32a-	.
16BnJJ)	.	32g	.
.	.	32fJJJ)	.
*	*v	*v	*
=194	=194	=194
*	*^	*
(<16CLL	4ee-	(32e-LLL	.
.	.	32f	.
16cJJ	.	32g	.
.	.	32a-JJJ	.
16AA-LL	.	32b-LLL	.
.	.	32bn	.
16A-	.	32cc	.
.	.	32bJJJ)	.
16AAn	8ff	(32ccLLL	sf
.	.	32b	.
16AnJJ)	.	32ddn	.
.	.	32ccJJJ)	.
=195	=195	=195	=195
(16BB-XLL	4ee-	32gLLL	.
.	.	32f#	.
16B-X	.	32g	.
.	.	32f#JJJ	.
16BB-	.	32gLLL	.
.	.	32b-X	.
16B-JJ	.	32a-	.
.	.	32gJJJ	.
16BBB-LL	8ddn	(32fnLLL	sf
.	.	32a-	.
16BB-JJ)	.	32g	.
.	.	32fJJJ)	.
=196	=196	=196	=196
(<16EE-LL<	(8ee-L	32r	<
.	.	(>32e-LLL	.
16E-	.	32g	.
.	.	32e-JJJ)	.
16FF	8ddn	32r	.
.	.	(>32e-LLL	.
16F	.	32a-	.
.	.	32e-JJJ)	.
16GG	8dd-J)	32r	.
.	.	(>32e-LLL	.
16GJJ)	.	32b-	.
.	.	32e-JJJ)	.
=197	=197	=197	=197
(32AA-LLL	(32ccLLL	(16e-LL	p
32E-	32ee-	.	.
32A-	32ff	16a-)	.
32E-JJJ	32ee-JJJ	.	.
32CLLL	32ffLLL	16a-	.
32E-	32ee-	.	.
32A-	32ff	16a-	.
32E-JJJ	32ee-JJJ	.	.
32CLLL	32ffLLL	16a-	.
32E-	32ee-	.	.
32A-	32ff	16a-JJ	.
32E-JJJ)	32ee-JJJ)	.	.
=198	=198	=198	=198
32BB-LLL	(32ffLLL	(16a-LL	.
32E-	32ee-	.	.
32G	32ff	16g)	.
32E-JJJ	32ee-JJJ	.	.
32D-LLL	32ffLLL	(16g	.
32E-	32ee-	.	.
32B-	32ff	16f	.
32E-JJJ	32ee-JJJ	.	.
32D-LLL	32ffLLL	16g	.
32E-	32ee-	.	.
32B-	32ff	16e-JJ)	.
32E-JJJ	32ee-JJJ)	.	.
=199	=199	=199	=199
32CLLL	(32ffLLL	8a-L	<
32E-	32ee-	.	.
32A-	32ff	.	.
32E-JJJ	32ee-JJJ	.	.
32CLLL	32ffLLL	(8a-	.
32E-	32ee-	.	.
32A-	32ff	.	.
32E-JJJ	32ee-JJJ	.	.
32GGLLL	32ffLLL	8b-J	.
32E-	32ee-	.	.
32G	32ff	.	.
32E-JJJ	32ee-JJJ	.	.
=200	=200	=200	=200
32AA-LLL	32ffLLL	8a- 8ccL	.
32E-	32ee-	.	.
32A-	32ff	.	.
32E-JJJ	32ee-JJJ	.	.
32EE-LLL<	32ffLLL	8g 8b-J)	.
32E-	32ee-	.	.
32G	32ff	.	.
32E-JJJ	32ee-JJJ)	.	.
.	(8qcc	.	.
32GG-LLL	32b-LLL>)	8ryy	.
32E-	32an	.	.
32G-	32b-	.	.
32E-JJJ	32ccJJJ	.	.
=201	=201	=201	=201
32FFLLL	(32dd-yLLL	8dd-yL	.
32F	32aa-	.	.
32A-	32bb-	.	.
32d-JJJ	32aa-JJJ	.	.
32FLLL	32bb-LLL	(8dd-	.
32A-	32aa-	.	.
32d-	32bb-	.	.
32A-JJJ	32aa-JJJ	.	.
32E-LLL	32bb-LLL	8ccJ)	.
32A-	32aa-	.	.
32c	32bb-	.	.
32A-JJJ	32aa-JJJ	.	.
=202	=202	=202	=202
32DnLLL	32bb-LLL	(8ffL	.
32F	32aa-	.	.
32B-	32bb-	.	.
32FJJJ	32aa-JJJ	.	.
32D-LLL	32aa-LLL	8b-	.
32E-	32gg	.	.
32B-	32aa-	.	.
32E-JJJ	32ggJJJ	.	.
32CLLL	32bb-LLL	8ee-J)	.
32E-	32aa-	.	.
32A-	32bb-	.	.
32E-JJJ	32aa-JJJ	.	.
=203	=203	=203	=203
32EE-LLL<	32ffLLL	8a-L	>
32C	32ee-	.	.
32E-	32ff	.	.
32A-JJJ	32ee-JJJ	.	.
32EE-LLL<	32ffLLL	(8a- 8cc	.
32C	32ee-	.	.
32E-	32ff	.	.
32A-JJJ	32ee-JJJ	.	.
32EE-LLL<	32ffLLL	8g 8b-J	.
32D-	32ee-	.	.
32E-	32ff	.	.
32GJJJ	32ee-JJJ)	.	.
*	*v	*v	*
=204	=204	=204
8AA- 8C 8E- 8A-	16a-)	.
.	16e-LL	p
8r	16e-	.
.	16e-	.
8r	16e-	.
.	16e-JJ	.
=205	=205	=205
*	*^	*
8r	(4cc	16c 16e-LL	.
.	.	16c 16e-	.
8EE-' 8E-'L<	.	16c 16e-	.
.	.	16c 16e-	.
8AA-' 8A-'J	16b-LL	16c 16e-	.
.	16a-JJ)	16c 16e-JJ	.
=206	=206	=206	=206
8r	(8a-L	16d- 16e-LL	.
.	.	16d- 16e-	.
8EE-' 8E-'L<	8gJ)	16d- 16e-	.
.	.	16d- 16e-	.
8BB-' 8B-'J	(16.gLL	16d- 16e-	.
.	.	16d- 16e-JJ	.
.	32a-JJk)	.	.
=207	=207	=207	=207
8r	8b-L	16d- 16e-LL	.
.	.	16d- 16e-	.
8EE-' 8E-'L<	8b-J	16d- 16e-	.
.	.	16d- 16e-	.
8GG' 8G'J	(16.b-LL	16d- 16e-	.
.	.	16d- 16e-JJ	.
.	32ccJJk)	.	.
=208	=208	=208	=208
8r	8a-	16c 16e-LL	.
.	.	16c 16e-	.
8EE-' 8E-'L<	8r	16c 16e-	.
.	.	16c 16e-	.
8AA-' 8A-'J	8r	16c 16e-	.
.	.	16c 16e-JJ	.
=209	=209	=209	=209
8r	(16cc'LL	16c 16e-LL	.
.	16bn'	16c 16e-	.
8EE-' 8E-'L<	16dd-y'	16c 16e-	.
.	16cc'	16c 16e-	.
8AA-' 8A-'J	16b-'	16c 16e-	.
.	16a-'JJ)	16c 16e-JJ	.
=210	=210	=210	=210
8r	(16a-'LL	16d-y 16e-LL	.
.	16g'	16d- 16e-	.
8EE-' 8E-'L<	16g'	16d- 16e-	.
.	16f#'	16d- 16e-	.
8BB-' 8B-'J	16g'	16d- 16e-	.
.	16a-'JJ)	16d- 16e-JJ	.
=211	=211	=211	=211
8r	(16b-'LL	16d-y 16e-LL	.
.	16an'	16d- 16e-	.
8EE-' 8E-'L<	16b-	16d- 16e-	.
.	16a'	16d- 16e-	.
8GG' 8G'J	16b-'	16d- 16e-	.
.	16ccJJ)	16d- 16e-JJ	.
=212	=212	=212	=212
8r	8a-X	16c 16e-LL	.
.	.	16c 16e-	.
(8E-L	8rdd	16c 16e-	.
.	.	16c 16e-	.
8A-J)	16r	16c 16e-	.
.	(16an	16c 16e-JJ	.
=213	=213	=213	=213
8r	8b-)	16d- 16e-LL	>
.	.	16d- 16e-	.
(8EE-L	8r	16d- 16e-	.
.	.	16d- 16e-	.
8GGJ)	16r	16d- 16e-	.
.	(16cc	16d- 16e-JJ	.
=214	=214	=214	=214
!	!	!LO:TX:i:t=calando	!
8r	8a-X)	16c 16e-LL	.
.	.	16c 16e-	.
(8E-L	8rdd	16c 16e-	.
.	.	16c 16e-	.
8A-J)	16r	16c 16e-	.
.	(16an	16c 16e-JJ	.
=215	=215	=215	=215
8r	8b-)	16d- 16e-LL	.
.	.	16d- 16e-	.
(8EE-L	8r	16d- 16e-	.
.	.	16d- 16e-	.
8GGJ)	16r	16d- 16e-	.
.	(16cc	16d- 16e-JJ	.
=216	=216	=216	=216
*^	*	*	*
8r	8r	[4.a-X)	16c 16e-LL	pp
.	.	.	16c 16e-	<
[4AA-	(8AA-L	.	16c 16e-	.
.	.	.	16c 16e-	.
.	8EE-J	.	16c 16e-	.
.	.	.	16c 16e-JJ	.
*v	*v	*	*	*
=217	=217	=217	=217
8CC 8AA-]L	8a-L]	16c 16e-LL	.
.	.	16c 16e-	.
8EE- 8AA-	8a-	16c 16e-	.
.	.	16c 16e-	.
8CC 8AA-J)	8a-J	16c 16e-	.
.	.	16c 16e-JJ	.
*	*v	*v	*
=218	=218	=218
[4.AAA- [4.AA-	[4.c [4.e- [4.a-	p
=219	=219	=219
4AAA-;] 4AA-;]	4c] 4e-] 4a-]	.
==	==	==
*-	*-	*-
!!!RDF**kern: > = above
!!!RDF**kern: < = below
!!!RDF**kern: N = linked
!!!verovio: beamFrenchStyle
!!!LOR: Durand 1915, plates 9327/9328, Paul Dukas, ed.
!!!PED: Dukas, Paul
!!!URL-vhv: https://verovio.humdrum.org/?file=beethoven/sonatas/sonata12-1.krn
!!!URL-pdf: https://github.com/craigsapp/beethoven-piano-sonatas/blob/master/reference-edition/sonata12-1.pdf
!!!ENC: Craig Stuart Sapp
!!!END: 2008/11/10
!!!EED: Craig Stuart Sapp
!!!EEV: 2018/07/05
